packages/elvis-assets-icons/icons/svg/src/freshchat-color.svg

<svg width="24" height="24" viewBox="0 0 24 24" fill="none" xmlns="http://www.w3.org/2000/svg">
<path fill-rule="evenodd" clip-rule="evenodd" d="M22.5 4.28429V12.2182C22.5 17.9117 17.799 22.5273 12 22.5273C6.21877 22.5273 1.5 17.8212 1.5 12.1101C1.5 6.2785 6.31826 1.47273 12.2222 1.47273H19.6364C20.2899 1.47273 20.7119 1.47339 21.0355 1.49311C21.3473 1.51212 21.4672 1.54473 21.5242 1.56558C21.9318 1.71486 22.2534 2.03056 22.4054 2.43079C22.4267 2.48671 22.4599 2.60451 22.4792 2.91061C22.4993 3.22835 22.5 3.64259 22.5 4.28429ZM12 24C5.37258 24 0 18.617 0 12.1101C0 5.48268 5.47208 0 12.2222 0H19.6364C20.9063 0 21.5413 1.90735e-06 22.0484 0.185711C22.8637 0.484268 23.5068 1.11567 23.8109 1.91612C24 2.41404 24 3.03745 24 4.28429V12.2182C24 18.7251 18.6274 24 12 24Z" fill="black"/>
<path fill-rule="evenodd" clip-rule="evenodd" d="M6.88699 10.35C6.88699 9.93576 7.23738 9.59998 7.66961 9.59998H17.8436C18.2758 9.59998 18.6262 9.93576 18.6262 10.35C18.6262 10.7642 18.2758 11.1 17.8436 11.1H7.66961C7.23738 11.1 6.88699 10.7642 6.88699 10.35Z" fill="#29D305"/>
<path fill-rule="evenodd" clip-rule="evenodd" d="M6.88699 13.35C6.88699 12.9358 7.23738 12.6 7.66961 12.6H14.7131C15.1453 12.6 15.4957 12.9358 15.4957 13.35C15.4957 13.7642 15.1453 14.1 14.7131 14.1H7.66961C7.23738 14.1 6.88699 13.7642 6.88699 13.35Z" fill="#29D305"/>
</svg>

<svg width="24" height="24" fill="none" xmlns="http://www.w3.org/2000/svg"><path fill-rule="evenodd" clip-rule="evenodd" d="M22.5 4.284v7.934c0 5.694-4.701 10.31-10.5 10.31-5.781 0-10.5-4.707-10.5-10.418C1.5 6.28 6.318 1.473 12.222 1.473h7.414c.654 0 1.076 0 1.4.02.311.02.431.052.488.073.408.149.73.465.881.865.022.056.055.174.074.48.02.317.021.732.021 1.373zM12 24C5.373 24 0 18.617 0 12.11 0 5.483 5.472 0 12.222 0h7.414c1.27 0 1.905 0 2.412.186.816.298 1.459.93 1.763 1.73C24 2.414 24 3.037 24 4.284v7.934C24 18.725 18.627 24 12 24z" fill="#000"/><path fill-rule="evenodd" clip-rule="evenodd" d="M6.887 10.35c0-.414.35-.75.783-.75h10.174c.432 0 .782.336.782.75s-.35.75-.782.75H7.67c-.433 0-.783-.336-.783-.75zM6.887 13.35c0-.414.35-.75.783-.75h7.043c.432 0 .783.336.783.75s-.35.75-.783.75H7.67c-.433 0-.783-.336-.783-.75z" fill="#29D305"/></svg>
